app/assets/v2/images/mission/interact/head.svg

<svg viewBox="0 0 59.08 71" xmlns="http://www.w3.org/2000/svg"><path d="m36 18.06h-14.82a3.6 3.6 0 0 0 -3.58 3.58v11.14a3.6 3.6 0 0 0 3.58 3.58h4.53v2.3a1.4 1.4 0 0 0 1.4 1.4 1.37 1.37 0 0 0 1-.41l3.3-3.29h4.59a3.59 3.59 0 0 0 3.58-3.58v-11.14a3.59 3.59 0 0 0 -3.58-3.58z" fill="#00ed92"/><path d="m48.42 55.89a5.21 5.21 0 0 0 1.73-4v-7.7h7.69a1.16 1.16 0 0 0 1.24-1.19v-1.54a1.1 1.1 0 0 0 -.12-.63l-8.81-16.2a25.08 25.08 0 0 0 -50.15.44c0 7.84 2.47 13.76 4.65 19l.25.6c2.07 4.75 4 9.24 4 14.69v11.64h2.48v-11.67c0-5.63-1.88-10.18-3.87-15l-.29-.69c-2.22-5.04-4.74-10.77-4.74-18.57a22.6 22.6 0 0 1 45.19 0 1.15 1.15 0 0 0 .12.64l8.84 16h-7.72a1.16 1.16 0 0 0 -1.24 1.29v8.94a3.3 3.3 0 0 1 -3.23 3.22h-6a1.17 1.17 0 0 0 -1.24 1.24v14.6h2.48v-13.41h4.72a5.18 5.18 0 0 0 4.02-1.7z" fill="#180041"/><path d="m33 15.06h-14.82a3.6 3.6 0 0 0 -3.58 3.58v11.14a3.6 3.6 0 0 0 3.58 3.58h4.53v2.3a1.4 1.4 0 0 0 1.4 1.4 1.37 1.37 0 0 0 1-.41l3.3-3.29h4.59a3.59 3.59 0 0 0 3.58-3.58v-11.14a3.59 3.59 0 0 0 -3.58-3.58z" fill="none" stroke="#180041" stroke-miterlimit="10" stroke-width="2.4"/><g fill="#180041"><circle cx="20.48" cy="24.21" r="1.77"/><path d="m25.58 26a1.77 1.77 0 1 1 1.77-1.77 1.77 1.77 0 0 1 -1.78 1.77zm5.09 0a1.77 1.77 0 1 1 1.77-1.77 1.76 1.76 0 0 1 -1.78 1.77z"/></g></svg>

<svg xmlns="http://www.w3.org/2000/svg" viewBox="0 0 59.08 71"><defs><style>.cls-2{fill:#180041}</style></defs><g id="Layer_2" data-name="Layer 2"><g id="Layer_2-2" data-name="Layer 2"><path d="M36 18.06H21.18a3.6 3.6 0 0 0-3.58 3.58v11.14a3.6 3.6 0 0 0 3.58 3.58h4.53v2.3a1.4 1.4 0 0 0 1.4 1.4 1.37 1.37 0 0 0 1-.41l3.3-3.29H36a3.59 3.59 0 0 0 3.58-3.58V21.64A3.59 3.59 0 0 0 36 18.06z" fill="#00ed92"/><path class="cls-2" d="M48.42 55.89a5.21 5.21 0 0 0 1.73-4v-7.7h7.69A1.16 1.16 0 0 0 59.08 43v-1.54a1.1 1.1 0 0 0-.12-.63l-8.81-16.2A25.08 25.08 0 0 0 0 25.07c0 7.84 2.47 13.76 4.65 19l.25.6c2.07 4.75 4 9.24 4 14.69V71h2.48V59.33c0-5.63-1.88-10.18-3.87-15l-.29-.69C5 38.6 2.48 32.87 2.48 25.07a22.6 22.6 0 0 1 45.19 0 1.15 1.15 0 0 0 .12.64l8.84 16h-7.72A1.16 1.16 0 0 0 47.67 43v8.94a3.3 3.3 0 0 1-3.23 3.22h-6a1.17 1.17 0 0 0-1.24 1.24V71h2.48V57.59h4.72a5.18 5.18 0 0 0 4.02-1.7z"/><path d="M33 15.06H18.18a3.6 3.6 0 0 0-3.58 3.58v11.14a3.6 3.6 0 0 0 3.58 3.58h4.53v2.3a1.4 1.4 0 0 0 1.4 1.4 1.37 1.37 0 0 0 1-.41l3.3-3.29H33a3.59 3.59 0 0 0 3.58-3.58V18.64A3.59 3.59 0 0 0 33 15.06z" fill="none" stroke="#180041" stroke-miterlimit="10" stroke-width="2.4"/><circle class="cls-2" cx="20.48" cy="24.21" r="1.77"/><path class="cls-2" d="M25.58 26a1.77 1.77 0 1 1 1.77-1.77A1.77 1.77 0 0 1 25.57 26zM30.67 26a1.77 1.77 0 1 1 1.77-1.77A1.76 1.76 0 0 1 30.66 26z"/></g></g></svg>
